X: 39174
T: Swimming In The Gutter
R: jig
M: 6/8
K: Fmajor
|:d2d AGA|d2d AGA|d^cd fed|gag fe^c|
d2d AGA|d2d AGA|def gag|fdd d3:|
|:FAA A^GA|aba fef|BgB AfA|GBA GFE|
FAA A^GA|aba fef|Bgg Aff|ede f3:|

